X:148
T:Secret Gypsy Handshake
C:Charlie Provenza
N:From the CD Giant Tarantella Transcribed by Mike Stangeland
L:1/8
Q:1/4=144
M:4/4
K:Eb
|: "Cm"[c2E2] d2 cG EC | z[EC] [EC][EC] [EC][E3C3] | "Fm"[c2F2] [d2F2] cA FD | 
z3[dF] [_d=E][=AD] [dE][=dF] | "G"z3c =B2 A2 | G2 F2 E2 D2 | "Cm"E2 (3EGG (3GGG (3GGG | 
GG _G=G A=A B=B | c2 d2 cG EC | z[cE] [cE][cE] [cE][c3E3] | "Fm"[c2F2] [d2F2] cA FD | 
z4 z[dF] [d2F2] | "G"[_d2=E2] c2 =BA z2 | G2 F2 E2 DE | "Cm"CD E[cEC] z2 C[cE] | 
z2 C[cE] zD (3EGE | "Bb"D2 E2 F2 G2 | A2 B2 c2 d2 | (3"Cm"ddd (3ddd d3e | cG4G _G=G | 
{A}"Fm"B2 AD z2 gd' | z3D A2 A2 | (3"G"GGG (3GGG (3GGG (3GGG | GG _G=G A=A B=B | 
"Cm"[c2E2] d2 cG EC | z[EC] [EC][EC] [EC][E3C3] | "Fm"[c2F2] [d2F2] cA FD | z3[dF] [_d=E][=AD] [dE][=dF] | 
"G"z3c =B2 A2 | G2 F2 E2 D2 | "Cm"CD (3EFG de dc | =Bd cG F2 {F}E2 :| "Cm"D8 | 


